file/lockheed-martin.svg

<svg clip-rule="evenodd" fill-rule="evenodd" stroke-linejoin="round" stroke-miterlimit="1.41421" viewBox="0 0 560 400" xmlns="http://www.w3.org/2000/svg"><path d="m312.7 78.5-8 17h-7.3l-.8-17h-.3l-3.5 17h-7.6l5.3-25.5h12.5l.2 14.7h.3l6.2-14.7h12.9l-5.3 25.5h-8.1l3.7-17zm27.8-8.4h11.6l1.8 25.5h-8.3l-.1-4.5h-7.5l-2 4.5h-7.8zm5 15.6-.5-9.7h-.3l-4.7 9.7zm59.1-9.6h-5.6l1.3-6h19.5l-1.2 6h-5.6l-4.1 19.5h-8.3zm48.4-6h11.3l2.5 15.2h.2l3.2-15.2h7.9l-5.3 25.5h-11.3l-2.1-15.6h-.3l-3.2 15.6h-8.2zm-82.5 0h12.3c6 0 8.1 3.3 8.1 6.5 0 4.8-4.1 6.2-6.1 6.6v.4c2.4.3 3.5 2 3.5 4.2 0 1.7-.4 3.4-.4 5.6 0 .9.2 1.9.2 2.3h-8.9c0-.1-.1-1-.1-1.5 0-2.1.6-3.6.6-6 0-1.1-.4-2.1-2.1-2.1h-2.2l-2 9.6h-8.4zm8.3 10.6c2.4 0 3.4-1.2 3.4-2.7 0-1.3-.7-1.9-2.4-1.9h-2.1l-1 4.6zm51.5-10.6h8.3l-5.3 25.5h-8.3zm-422 0h8.3l-4 19.5h8.2l-1.2 6h-16.6zm96.4 0h8.3l-2.3 11h.2l7.4-11h8.9l-9.2 12 4.6 13.5h-8.9l-3.5-11.3h-.2l-2.4 11.3h-8.3zm43.3 15.9h-5l-2 9.6h-8.3l5.3-25.5h8.3l-2 9.6h5l2-9.6h8.3l-5.3 25.5h-8.3zm58.6-15.9h17.5l-1.3 6h-9.2l-.8 3.8h8.3l-1.3 6h-8.3l-.8 3.7h9.6l-1.3 6h-17.9zm-32 0h17.5l-1.3 6h-9.2l-.8 3.8h8.3l-1.3 6h-8.3l-.8 3.7h9.6l-1.3 6h-17.9zm-128.5-.4c6.2 0 9.5 3.5 9.5 9 0 6.7-3.5 17.2-14.4 17.2-6 0-9.6-3.3-9.6-9 .2-7.4 4-17.2 14.5-17.2m-3.9 19.8c3.7 0 5.2-9.1 5.2-11.2 0-1.1-.5-2.2-2.2-2.2-3.8 0-5.2 9.3-5.2 11.2 0 1.8 1.2 2.2 2.2 2.2m197.8-19.4h9.4c8.1 0 11.4 4.5 11.4 9.5 0 9.5-6 16-16 16h-10.2zm4.3 19.4h2.4c3.4 0 5.7-4.5 5.7-10 0-2-.9-3.5-3.9-3.5h-1.5zm-156.8-3.5c-1.4 6.9-6.4 9.9-12.3 9.9-6.2 0-9.5-3.5-9.5-9 0-6.4 3.3-17.2 14.4-17.2 5.1 0 9.2 1.9 9 7.3 0 .8-.2 2.1-.3 2.6h-7.8c0-.2.2-.9.2-1.6 0-1.4-1.1-1.9-2-1.9-3.8 0-5.3 9.2-5.3 11.2 0 1.5.9 2.2 2.1 2.2 1.3 0 2.5-1 3.5-3.5zm417.1 1.9c-.7.7-.7.7 0 0m63.6-27.5 25.8.6-30.6 17.3c1.6-6.1 3.1-11.7 4.8-17.9m-.1-30.3-4.5 23.4h-21.2zm58.7 23.4h-56.6c7.4-28 14.2-51.7 14.2-51.7s-25.6 27.2-48.2 51.7l-224.5.5h.2-.2l218.9 5.5c-16.8 17.9-25.7 28.1-26.1 28.5l.1-.1c.7-.6 31-28.3 31-28.3l26.6.7-4 21-124.8 70.6c-.3.2-.5.3-.5.3s99.1-52.1 124.1-64.7c0 0-8.8 45.8-8.8 46v-.1.1l.1-.5c.8-3 6.1-21 13.2-47.7 32.7-16.6 65.3-31.8 65.3-31.8" fill="#365181" fill-rule="nonzero" transform="matrix(.598404 0 0 .598404 91.5625 153.923)"/></svg>

<?xml version="1.0" encoding="UTF-8" standalone="no"?>
<!DOCTYPE svg PUBLIC "-//W3C//DTD SVG 1.1//EN" "http://www.w3.org/Graphics/SVG/1.1/DTD/svg11.dtd">
<svg width="100%" height="100%" viewBox="0 0 560 400" version="1.1" xmlns="http://www.w3.org/2000/svg" xmlns:xlink="http://www.w3.org/1999/xlink" xml:space="preserve" xmlns:serif="http://www.serif.com/" style="fill-rule:evenodd;clip-rule:evenodd;stroke-linejoin:round;stroke-miterlimit:1.41421;">
    <g id="logosvg_1_" transform="matrix(0.598404,0,0,0.598404,91.5625,153.923)">
        <path d="M312.7,78.5L304.7,95.5L297.4,95.5L296.6,78.5L296.3,78.5L292.8,95.5L285.2,95.5L290.5,70L303,70L303.2,84.7L303.5,84.7L309.7,70L322.6,70L317.3,95.5L309.2,95.5L312.9,78.5L312.7,78.5ZM340.5,70.1L352.1,70.1L353.9,95.6L345.6,95.6L345.5,91.1L338,91.1L336,95.6L328.2,95.6L340.5,70.1ZM345.5,85.7L345,76L344.7,76L340,85.7L345.5,85.7ZM404.6,76.1L399,76.1L400.3,70.1L419.8,70.1L418.6,76.1L413,76.1L408.9,95.6L400.6,95.6L404.6,76.1ZM453,70.1L464.3,70.1L466.8,85.3L467,85.3L470.2,70.1L478.1,70.1L472.8,95.6L461.5,95.6L459.4,80L459.1,80L455.9,95.6L447.7,95.6L453,70.1ZM370.5,70.1L382.8,70.1C388.8,70.1 390.9,73.4 390.9,76.6C390.9,81.4 386.8,82.8 384.8,83.2L384.8,83.6C387.2,83.9 388.3,85.6 388.3,87.8C388.3,89.5 387.9,91.2 387.9,93.4C387.9,94.3 388.1,95.3 388.1,95.7L379.2,95.7C379.2,95.6 379.1,94.7 379.1,94.2C379.1,92.1 379.7,90.6 379.7,88.2C379.7,87.1 379.3,86.1 377.6,86.1L375.4,86.1L373.4,95.7L365,95.7L370.5,70.1ZM378.8,80.7C381.2,80.7 382.2,79.5 382.2,78C382.2,76.7 381.5,76.1 379.8,76.1L377.7,76.1L376.7,80.7L378.8,80.7ZM430.3,70.1L438.6,70.1L433.3,95.6L425,95.6L430.3,70.1ZM8.3,70.1L16.6,70.1L12.6,89.6L20.8,89.6L19.6,95.6L3,95.6L8.3,70.1ZM104.7,70.1L113,70.1L110.7,81.1L110.9,81.1L118.3,70.1L127.2,70.1L118,82.1L122.6,95.6L113.7,95.6L110.2,84.3L110,84.3L107.6,95.6L99.3,95.6L104.7,70.1ZM148,86L143,86L141,95.6L132.7,95.6L138,70.1L146.3,70.1L144.3,79.7L149.3,79.7L151.3,70.1L159.6,70.1L154.3,95.6L146,95.6L148,86ZM206.6,70.1L224.1,70.1L222.8,76.1L213.6,76.1L212.8,79.9L221.1,79.9L219.8,85.9L211.5,85.9L210.7,89.6L220.3,89.6L219,95.6L201.1,95.6L206.6,70.1ZM174.6,70.1L192.1,70.1L190.8,76.1L181.6,76.1L180.8,79.9L189.1,79.9L187.8,85.9L179.5,85.9L178.7,89.6L188.3,89.6L187,95.6L169.1,95.6L174.6,70.1ZM46.1,69.7C52.3,69.7 55.6,73.2 55.6,78.7C55.6,85.4 52.1,95.9 41.2,95.9C35.2,95.9 31.6,92.6 31.6,86.9C31.8,79.5 35.6,69.7 46.1,69.7M42.2,89.5C45.9,89.5 47.4,80.4 47.4,78.3C47.4,77.2 46.9,76.1 45.2,76.1C41.4,76.1 40,85.4 40,87.3C40,89.1 41.2,89.5 42.2,89.5M240,70.1L249.4,70.1C257.5,70.1 260.8,74.6 260.8,79.6C260.8,89.1 254.8,95.6 244.8,95.6L234.6,95.6L240,70.1ZM244.3,89.5L246.7,89.5C250.1,89.5 252.4,85 252.4,79.5C252.4,77.5 251.5,76 248.5,76L247,76L244.3,89.5ZM87.5,86C86.1,92.9 81.1,95.9 75.2,95.9C69,95.9 65.7,92.4 65.7,86.9C65.7,80.5 69,69.7 80.1,69.7C85.2,69.7 89.3,71.6 89.1,77C89.1,77.8 88.9,79.1 88.8,79.6L81,79.6C81,79.4 81.2,78.7 81.2,78C81.2,76.6 80.1,76.1 79.2,76.1C75.4,76.1 73.9,85.3 73.9,87.3C73.9,88.8 74.8,89.5 76,89.5C77.3,89.5 78.5,88.5 79.5,86L87.5,86ZM504.6,87.9C503.9,88.6 503.9,88.6 504.6,87.9M568.2,60.4L594,61L563.4,78.3C565,72.2 566.5,66.6 568.2,60.4M568.1,30.1L563.6,53.5L542.4,53.5L568.1,30.1ZM626.8,53.5L570.2,53.5C577.6,25.5 584.4,1.8 584.4,1.8C584.4,1.8 558.8,29 536.2,53.5L311.7,54L311.9,54L311.7,54L530.6,59.5C513.8,77.4 504.9,87.6 504.5,88L504.6,87.9C505.3,87.3 535.6,59.6 535.6,59.6L562.2,60.3L558.2,81.3L433.4,151.9C433.1,152.1 432.9,152.2 432.9,152.2C432.9,152.2 532,100.1 557,87.5C557,87.5 548.2,133.3 548.2,133.5L548.2,133.4L548.2,133.5L548.3,133C549.1,130 554.4,112 561.5,85.3C594.2,68.7 626.8,53.5 626.8,53.5" style="fill:rgb(54,81,129);fill-rule:nonzero;"/>
    </g>
</svg>
